jekyll/assets/img/logo_gro_all_white.svg

<?xml version="1.0" encoding="UTF-8"?>
<svg width="347px" height="60px" viewBox="0 0 347 60" version="1.1" xmlns="http://www.w3.org/2000/svg" xmlns:xlink="http://www.w3.org/1999/xlink">
    <!-- Generator: Sketch 48.1 (47250) - http://www.bohemiancoding.com/sketch -->
    <title>logo_gro_all_white</title>
    <desc>Created with Sketch.</desc>
    <defs></defs>
    <g id="Logo" stroke="none" stroke-width="1" fill="none" fill-rule="evenodd">
        <g id="logo_gro_all_white" fill="#FFFFFF">
            <path d="M32.046875,36.6005859 C31.3782519,37.4723351 30.4515033,38.1324847 29.2666016,38.5810547 C28.0816998,39.0296246 26.7360101,39.2539062 25.2294922,39.2539062 C23.6806563,39.2539062 22.3095763,38.9026728 21.1162109,38.2001953 C19.9228456,37.4977178 19.0024446,36.4926823 18.3549805,35.1850586 C17.7075163,33.8774349 17.3710939,32.3518967 17.3457031,30.6083984 L17.3457031,29.1611328 C17.3457031,26.3681501 18.0143162,24.186694 19.3515625,22.6166992 C20.6888088,21.0467044 22.555001,20.2617188 24.9501953,20.2617188 C27.0068462,20.2617188 28.6402934,20.7695262 29.8505859,21.7851562 C31.0608784,22.8007863 31.7887358,24.2649644 32.0341797,26.1777344 L28.8857422,26.1777344 C28.5302717,23.9518118 27.2395945,22.8388672 25.0136719,22.8388672 C23.5748626,22.8388672 22.4809608,23.3572539 21.7319336,24.394043 C20.9829064,25.430832 20.5957033,26.9521384 20.5703125,28.9580078 L20.5703125,30.3798828 C20.5703125,32.3772886 20.9913695,33.9282171 21.8334961,35.0327148 C22.6756227,36.1372126 23.8456956,36.6894531 25.34375,36.6894531 C26.9856853,36.6894531 28.1536424,36.317061 28.8476562,35.5722656 L28.8476562,31.9541016 L25.0390625,31.9541016 L25.0390625,29.5166016 L32.046875,29.5166016 L32.046875,36.6005859 Z M47.3029733,31.1416016 C47.3029733,32.7412189 47.0173316,34.1567321 46.4460397,35.3881836 C45.8747478,36.6196351 45.06014,37.571774 44.002192,38.2446289 C42.944244,38.9174838 41.7255062,39.2539062 40.345942,39.2539062 C38.2639004,39.2539062 36.5796724,38.5133538 35.2932076,37.0322266 C34.0067429,35.5510994 33.3635201,33.5537235 33.3635201,31.0400391 L33.3635201,28.3740234 C33.3635201,26.7828696 33.6491618,25.3694723 34.2204537,24.1337891 C34.7917457,22.8981058 35.6084693,21.943851 36.6706491,21.2709961 C37.7328288,20.5981412 38.9494508,20.2617188 40.3205514,20.2617188 C41.7001156,20.2617188 42.9209693,20.5981412 43.9831491,21.2709961 C45.0453288,21.943851 45.8641683,22.9002217 46.439692,24.1401367 C47.0152157,25.3800518 47.3029733,26.7913332 47.3029733,28.3740234 L47.3029733,31.1416016 Z M46.6174264,28.3486328 C46.6174264,26.1142466 46.0503748,24.3221096 44.9162545,22.972168 C43.7821343,21.6222263 42.2502485,20.9472656 40.3205514,20.9472656 C38.416245,20.9472656 36.8970545,21.6179946 35.7629342,22.9594727 C34.628814,24.3009507 34.0617623,26.1269416 34.0617623,28.4375 L34.0617623,31.1416016 C34.0617623,32.6142652 34.3177819,33.9155217 34.8298287,35.0454102 C35.3418756,36.1752986 36.0718487,37.0449188 37.0197701,37.6542969 C37.9676916,38.2636749 39.0764044,38.5683594 40.345942,38.5683594 C42.2756392,38.5683594 43.8032932,37.8955145 44.9289498,36.5498047 C46.0546065,35.2040948 46.6174264,33.3675247 46.6174264,31.0400391 L46.6174264,28.3486328 Z M36.8801217,16.6435547 C36.8801217,16.4488923 36.9478294,16.281739 37.0832467,16.1420898 C37.2186641,16.0024407 37.3837015,15.9326172 37.5783639,15.9326172 C37.7730263,15.9326172 37.9401796,16.0024407 38.0798287,16.1420898 C38.2194779,16.281739 38.2893014,16.4488923 38.2893014,16.6435547 C38.2893014,16.8382171 38.2194779,17.0032545 38.0798287,17.1386719 C37.9401796,17.2740892 37.7730263,17.3417969 37.5783639,17.3417969 C37.3837015,17.3417969 37.2186641,17.2740892 37.0832467,17.1386719 C36.9478294,17.0032545 36.8801217,16.8382171 36.8801217,16.6435547 Z M42.5295358,16.6435547 C42.5295358,16.4488923 42.5972434,16.281739 42.7326608,16.1420898 C42.8680781,16.0024407 43.0331155,15.9326172 43.227778,15.9326172 C43.4224404,15.9326172 43.5895937,16.0024407 43.7292428,16.1420898 C43.8688919,16.281739 43.9387155,16.4488923 43.9387155,16.6435547 C43.9387155,16.8382171 43.8688919,17.0032545 43.7292428,17.1386719 C43.5895937,17.2740892 43.4224404,17.3417969 43.227778,17.3417969 C43.0331155,17.3417969 42.8680781,17.2740892 42.7326608,17.1386719 C42.5972434,17.0032545 42.5295358,16.8382171 42.5295358,16.6435547 Z M61.4672747,21.2011719 L54.738759,21.2011719 L54.738759,39 L54.0532122,39 L54.0532122,21.2011719 L47.3246965,21.2011719 L47.3246965,20.515625 L61.4672747,20.515625 L61.4672747,21.2011719 Z M75.1872401,21.2011719 L68.4587245,21.2011719 L68.4587245,39 L67.7731776,39 L67.7731776,21.2011719 L61.044662,21.2011719 L61.044662,20.515625 L75.1872401,20.515625 L75.1872401,21.2011719 Z M77.5956821,39 L76.9101353,39 L76.9101353,20.515625 L77.5956821,20.515625 L77.5956821,39 Z M94.4767804,39 L93.7912335,39 L81.8576398,21.6835938 L81.8576398,39 L81.1593976,39 L81.1593976,20.515625 L81.8576398,20.515625 L93.7912335,37.7939453 L93.7912335,20.515625 L94.4767804,20.515625 L94.4767804,39 Z M110.558074,37.0195312 C110.092577,37.6627636 109.275853,38.1959614 108.107879,38.6191406 C106.939904,39.0423198 105.653459,39.2539062 104.248504,39.2539062 C102.877403,39.2539062 101.654434,38.9195997 100.579558,38.2509766 C99.5046832,37.5823534 98.6646851,36.638678 98.0595388,35.4199219 C97.4543926,34.2011658 97.1433605,32.8216223 97.1264334,31.28125 L97.1264334,28.1074219 C97.1264334,26.5924403 97.4184226,25.2340555 98.0024099,24.0322266 C98.5863972,22.8303976 99.4073526,21.9015332 100.465301,21.2456055 C101.523249,20.5896777 102.712364,20.2617188 104.032683,20.2617188 C105.869281,20.2617188 107.365197,20.7314406 108.520476,21.6708984 C109.675756,22.6103563 110.346485,23.89257 110.532683,25.5175781 L109.847136,25.5175781 C109.61862,24.0449145 109.005019,22.915043 108.006316,22.1279297 C107.007613,21.3408164 105.683082,20.9472656 104.032683,20.9472656 C102.170695,20.9472656 100.668431,21.611647 99.5258474,22.9404297 C98.3832636,24.2692124 97.8119802,26.0169163 97.8119802,28.1835938 L97.8119802,31.1289062 C97.8119802,32.5761791 98.080695,33.8668563 98.6181326,35.0009766 C99.1555702,36.1350968 99.9130496,37.0131805 100.890594,37.6352539 C101.868137,38.2573273 102.98743,38.5683594 104.248504,38.5683594 C105.484187,38.5683594 106.630985,38.386395 107.688933,38.0224609 C108.746881,37.6585268 109.474739,37.2184271 109.872527,36.7021484 L109.872527,31.3193359 L104.223113,31.3193359 L104.223113,30.6210938 L110.558074,30.6210938 L110.558074,37.0195312 Z M123.313196,29.8339844 L114.045618,29.8339844 L114.045618,38.3144531 L124.608118,38.3144531 L124.608118,39 L113.360071,39 L113.360071,20.515625 L124.608118,20.515625 L124.608118,21.2011719 L114.045618,21.2011719 L114.045618,29.1484375 L123.313196,29.1484375 L123.313196,29.8339844 Z M139.457966,39 L138.772419,39 L126.838825,21.6835938 L126.838825,39 L126.140583,39 L126.140583,20.515625 L126.838825,20.515625 L138.772419,37.7939453 L138.772419,20.515625 L139.457966,20.515625 L139.457966,39 Z M148.645705,31.8779297 L145.065627,31.8779297 L145.065627,39 L141.853713,39 L141.853713,20.515625 L148.353713,20.515625 C150.486536,20.515625 152.132678,20.9938103 153.292189,21.9501953 C154.4517,22.9065803 155.031447,24.2903555 155.031447,26.1015625 C155.031447,27.3372458 154.73311,28.3719034 154.136427,29.2055664 C153.539745,30.0392294 152.70821,30.6803363 151.641798,31.1289062 L155.793166,38.8349609 L155.793166,39 L152.352736,39 L148.645705,31.8779297 Z M145.065627,29.3007812 L148.366408,29.3007812 C149.449747,29.3007812 150.296092,29.0278348 150.90547,28.4819336 C151.514848,27.9360324 151.819533,27.1891323 151.819533,26.2412109 C151.819533,25.2509716 151.538123,24.4850288 150.975295,23.9433594 C150.412466,23.40169 149.572468,23.1223959 148.455275,23.1054688 L145.065627,23.1054688 L145.065627,29.3007812 Z M166.669381,29.8339844 L157.401803,29.8339844 L157.401803,38.3144531 L167.964303,38.3144531 L167.964303,39 L156.716256,39 L156.716256,20.515625 L167.964303,20.515625 L167.964303,21.2011719 L157.401803,21.2011719 L157.401803,29.1484375 L166.669381,29.1484375 L166.669381,29.8339844 Z M180.567081,34.5693359 C180.567081,33.7822226 180.383001,33.1157254 180.014835,32.5698242 C179.646669,32.0239231 179.066922,31.541506 178.275577,31.1225586 C177.484232,30.7036112 176.288769,30.2740907 174.689151,29.8339844 C173.089534,29.393878 171.889839,28.9495465 171.09003,28.5009766 C170.290222,28.0524066 169.704127,27.531904 169.331729,26.9394531 C168.959332,26.3470022 168.773136,25.6276084 168.773136,24.78125 C168.773136,23.4355401 169.340187,22.3458701 170.474308,21.512207 C171.608428,20.678544 173.085301,20.2617188 174.904972,20.2617188 C176.089873,20.2617188 177.154153,20.492348 178.097843,20.9536133 C179.041532,21.4148786 179.771505,22.0623331 180.287784,22.8959961 C180.804063,23.7296591 181.062198,24.6712187 181.062198,25.7207031 L180.376651,25.7207031 C180.376651,24.3411389 179.868844,23.2006881 178.853214,22.2993164 C177.837584,21.3979447 176.521516,20.9472656 174.904972,20.9472656 C173.279963,20.9472656 171.966012,21.3090784 170.963077,22.0327148 C169.960142,22.7563513 169.458683,23.664057 169.458683,24.7558594 C169.458683,25.8645889 169.894551,26.7574836 170.7663,27.4345703 C171.638049,28.111657 173.076837,28.7104466 175.082706,29.230957 C177.088575,29.7514674 178.556985,30.3544888 179.487979,31.0400391 C180.672881,31.9117882 181.265323,33.0797453 181.265323,34.5439453 C181.265323,35.4749396 181.002956,36.2980107 180.478214,37.0131836 C179.953472,37.7283564 179.208687,38.280597 178.243839,38.6699219 C177.27899,39.0592467 176.195668,39.2539062 174.993839,39.2539062 C173.656593,39.2539062 172.454782,39.0317405 171.38837,38.5874023 C170.321958,38.1430642 169.520046,37.5104208 168.982608,36.6894531 C168.445171,35.8684855 168.176456,34.8994196 168.176456,33.7822266 L168.862003,33.7822266 C168.862003,35.2972081 169.429054,36.4736286 170.563175,37.3115234 C171.697295,38.1494183 173.174168,38.5683594 174.993839,38.5683594 C176.610383,38.5683594 177.943378,38.1980831 178.992862,37.4575195 C180.042347,36.7169559 180.567081,35.7542377 180.567081,34.5693359 Z M192.801695,29.8339844 L183.534117,29.8339844 L183.534117,38.3144531 L194.096617,38.3144531 L194.096617,39 L182.84857,39 L182.84857,20.515625 L194.096617,20.515625 L194.096617,21.2011719 L183.534117,21.2011719 L183.534117,29.1484375 L192.801695,29.1484375 L192.801695,29.8339844 Z M205.366387,33.4775391 L196.314629,33.4775391 L194.257988,39 L193.508965,39 L200.42791,20.515625 L201.265801,20.515625 L208.184746,39 L207.435723,39 L205.366387,33.4775391 Z M196.568535,32.7919922 L205.112481,32.7919922 L200.846856,21.3408203 L196.568535,32.7919922 Z M216.16643,31.0908203 L209.755298,31.0908203 L209.755298,39 L209.069751,39 L209.069751,20.515625 L214.960376,20.515625 C216.813901,20.515625 218.288658,20.9938103 219.384692,21.9501953 C220.480726,22.9065803 221.028735,24.205721 221.028735,25.8476562 C221.028735,27.1087303 220.6373,28.2110955 219.854419,29.1547852 C219.071537,30.0984748 218.074965,30.6845692 216.864673,30.9130859 L221.803149,38.8222656 L221.803149,39 L221.079516,39 L216.16643,31.0908203 Z M209.755298,30.4052734 L215.582446,30.4052734 C217.004328,30.4052734 218.153242,29.9736371 219.029223,29.1103516 C219.905204,28.247066 220.343188,27.1595118 220.343188,25.8476562 C220.343188,24.408847 219.858655,23.2747437 218.889575,22.4453125 C217.920495,21.6158813 216.593848,21.2011719 214.909595,21.2011719 L209.755298,21.2011719 L209.755298,30.4052734 Z M236.691083,33.3378906 C236.513348,35.242197 235.85743,36.7042592 234.72331,37.7241211 C233.58919,38.743983 232.048841,39.2539062 230.102216,39.2539062 C228.790361,39.2539062 227.628751,38.9217156 226.617353,38.2573242 C225.605955,37.5929329 224.820969,36.6492574 224.262372,35.4262695 C223.703776,34.2032816 223.42025,32.8046954 223.411787,31.2304688 L223.411787,28.3740234 C223.411787,26.7997968 223.686849,25.3927471 224.236982,24.152832 C224.787115,22.912917 225.5721,21.9544305 226.591962,21.2773438 C227.611824,20.600257 228.781897,20.2617188 230.102216,20.2617188 C232.031913,20.2617188 233.568031,20.7695262 234.710615,21.7851562 C235.853199,22.8007863 236.513348,24.2565009 236.691083,26.1523438 L236.005537,26.1523438 C235.810874,24.4511634 235.218432,23.1583703 234.228193,22.2739258 C233.237953,21.3894813 231.862642,20.9472656 230.102216,20.9472656 C228.307936,20.9472656 226.858569,21.6243422 225.754072,22.9785156 C224.649574,24.3326891 224.097333,26.1481006 224.097333,28.4248047 L224.097333,31.1416016 C224.097333,32.597338 224.342774,33.8858993 224.833662,35.0073242 C225.324549,36.1287491 226.029132,37.002601 226.947431,37.6289062 C227.86573,38.2552115 228.917314,38.5683594 230.102216,38.5683594 C231.871105,38.5683594 233.252765,38.1324913 234.247236,37.2607422 C235.241707,36.388993 235.827801,35.0813889 236.005537,33.3378906 L236.691083,33.3378906 Z M252.124916,39 L251.439369,39 L251.439369,29.8339844 L239.632729,29.8339844 L239.632729,39 L238.947182,39 L238.947182,20.515625 L239.632729,20.515625 L239.632729,29.1484375 L251.439369,29.1484375 L251.439369,20.515625 L252.124916,20.515625 L252.124916,39 Z M269.272616,30.2402344 C269.272616,32.0514413 268.959468,33.6404554 268.333163,35.0073242 C267.706858,36.374193 266.811847,37.4236617 265.648104,38.1557617 C264.484361,38.8878617 263.145019,39.2539062 261.630038,39.2539062 C260.131983,39.2539062 258.796873,38.8878617 257.624667,38.1557617 C256.45246,37.4236617 255.54687,36.3805406 254.90787,35.0263672 C254.268869,33.6721938 253.945142,32.1106859 253.936678,30.3417969 L253.936678,29.3007812 C253.936678,27.4980379 254.256174,25.9069079 254.895175,24.5273438 C255.534175,23.1477796 256.435533,22.0919633 257.599276,21.3598633 C258.763019,20.6277633 260.098129,20.2617188 261.604647,20.2617188 C263.111165,20.2617188 264.446275,20.6235315 265.610018,21.347168 C266.773761,22.0708044 267.673003,23.1118096 268.307772,24.4702148 C268.942541,25.8286201 269.264152,27.4091707 269.272616,29.2119141 L269.272616,30.2402344 Z M266.060702,29.2753906 C266.060702,27.2272033 265.673499,25.657232 264.899081,24.5654297 C264.124663,23.4736274 263.026529,22.9277344 261.604647,22.9277344 C260.216619,22.9277344 259.131181,23.4715115 258.3483,24.559082 C257.565418,25.6466526 257.16552,27.1848859 257.148592,29.1738281 L257.148592,30.2402344 C257.148592,32.2714945 257.544259,33.8414658 258.335604,34.9501953 C259.126949,36.0589248 260.225083,36.6132812 261.630038,36.6132812 C263.05192,36.6132812 264.145822,36.07162 264.911776,34.9882812 C265.67773,33.9049425 266.060702,32.322276 266.060702,30.2402344 L266.060702,29.2753906 Z M284.427152,39 L283.741605,39 L271.808011,21.6835938 L271.808011,39 L271.109769,39 L271.109769,20.515625 L271.808011,20.515625 L283.741605,37.7939453 L283.741605,20.515625 L284.427152,20.515625 L284.427152,39 Z M288.181297,38.3144531 L297.664695,38.3144531 L297.664695,39 L287.483055,39 L287.483055,20.515625 L288.181297,20.515625 L288.181297,38.3144531 Z M300.073137,39 L299.38759,39 L299.38759,20.515625 L300.073137,20.515625 L300.073137,39 Z M316.954236,39 L316.268689,39 L304.335095,21.6835938 L304.335095,39 L303.636853,39 L303.636853,20.515625 L304.335095,20.515625 L316.268689,37.7939453 L316.268689,20.515625 L316.954236,20.515625 L316.954236,39 Z M329.963264,29.8339844 L320.695685,29.8339844 L320.695685,38.3144531 L331.258185,38.3144531 L331.258185,39 L320.010139,39 L320.010139,20.515625 L331.258185,20.515625 L331.258185,21.2011719 L320.695685,21.2011719 L320.695685,29.1484375 L329.963264,29.1484375 L329.963264,29.8339844 Z" id="GÖTTINGENRESEARCHONL"></path>
        </g>
    </g>
</svg>

<svg width="347" height="60" viewBox="0 0 347 60" xmlns="http://www.w3.org/2000/svg"><title>logo_gro_all_white</title><path d="M32.047 36.6c-.669.872-1.595 1.532-2.78 1.981-1.185.449-2.531.673-4.038.673-1.548 0-2.92-.351-4.113-1.054-1.193-.702-2.114-1.707-2.761-3.015-.647-1.308-.984-2.833-1.01-4.577v-1.447c0-2.793.67-4.974 2.007-6.544 1.337-1.57 3.203-2.355 5.598-2.355 2.057 0 3.69.508 4.9 1.523 1.21 1.016 1.939 2.48 2.184 4.393h-3.148c-.356-2.226-1.646-3.34-3.872-3.34-1.44 0-2.533.52-3.282 1.556-.75 1.037-1.136 2.558-1.162 4.564v1.422c0 1.997.421 3.548 1.263 4.653.843 1.104 2.013 1.656 3.51 1.656 1.643 0 2.81-.372 3.505-1.117v-3.618h-3.809v-2.437h7.008V36.6zm15.256-5.458c0 1.6-.286 3.015-.857 4.246-.571 1.232-1.386 2.184-2.444 2.857-1.058.672-2.276 1.009-3.656 1.009-2.082 0-3.766-.74-5.053-2.222-1.286-1.48-1.93-3.478-1.93-5.992v-2.666c0-1.591.286-3.005.857-4.24.572-1.236 1.388-2.19 2.45-2.863 1.063-.673 2.28-1.01 3.65-1.01 1.38 0 2.601.337 3.663 1.01 1.062.673 1.881 1.63 2.457 2.87.575 1.24.863 2.65.863 4.233v2.768zm-.686-2.793c0-2.235-.567-4.027-1.7-5.377-1.135-1.35-2.667-2.025-4.596-2.025-1.905 0-3.424.671-4.558 2.012-1.134 1.342-1.701 3.168-1.701 5.479v2.704c0 1.472.256 2.774.768 3.903.512 1.13 1.242 2 2.19 2.61.948.609 2.056.913 3.326.913 1.93 0 3.457-.672 4.583-2.018 1.126-1.346 1.688-3.182 1.688-5.51v-2.691zM36.88 16.644c0-.195.068-.362.203-.502.136-.14.3-.21.495-.21s.362.07.502.21c.14.14.21.307.21.502 0 .194-.07.36-.21.495a.695.695 0 0 1-.502.203.674.674 0 0 1-.495-.203.674.674 0 0 1-.203-.495zm5.65 0c0-.195.067-.362.203-.502.135-.14.3-.21.495-.21.194 0 .362.07.501.21.14.14.21.307.21.502 0 .194-.07.36-.21.495a.695.695 0 0 1-.501.203.674.674 0 0 1-.495-.203.674.674 0 0 1-.203-.495zM61.467 21.2H54.74V39h-.686V21.201h-6.728v-.685h14.142v.685zm13.72 0H68.46V39h-.686V21.201h-6.728v-.685h14.142v.685zM77.596 39h-.686V20.516h.686V39zm16.88 0h-.685L81.858 21.684V39h-.699V20.516h.699L93.79 37.794V20.516h.686V39zm16.082-1.98c-.465.643-1.282 1.176-2.45 1.6-1.168.422-2.455.634-3.86.634-1.37 0-2.594-.334-3.668-1.003-1.075-.669-1.915-1.612-2.52-2.831-.606-1.219-.917-2.598-.934-4.139v-3.174c0-1.515.292-2.873.876-4.075.584-1.202 1.405-2.13 2.463-2.786 1.058-.656 2.247-.984 3.568-.984 1.836 0 3.332.47 4.487 1.409 1.156.94 1.826 2.222 2.013 3.847h-.686c-.228-1.473-.842-2.603-1.84-3.39-1-.787-2.324-1.18-3.974-1.18-1.862 0-3.365.664-4.507 1.992-1.143 1.33-1.714 3.077-1.714 5.244v2.945c0 1.447.269 2.738.806 3.872.538 1.134 1.295 2.012 2.273 2.634.977.622 2.096.933 3.358.933 1.235 0 2.382-.182 3.44-.546 1.058-.363 1.786-.804 2.184-1.32V31.32h-5.65v-.698h6.335v6.399zm12.755-7.186h-9.267v8.48h10.562V39H113.36V20.516h11.248v.685h-10.562v7.947h9.267v.686zM139.458 39h-.686L126.84 21.684V39h-.698V20.516h.698l11.933 17.278V20.516h.686V39zm9.188-7.122h-3.58V39h-3.212V20.516h6.5c2.133 0 3.779.478 4.938 1.434 1.16.957 1.74 2.34 1.74 4.152 0 1.235-.299 2.27-.896 3.104-.596.833-1.428 1.474-2.494 1.923l4.151 7.706V39h-3.44l-3.707-7.122zm-3.58-2.577h3.3c1.084 0 1.93-.273 2.54-.82.609-.545.914-1.292.914-2.24 0-.99-.282-1.756-.845-2.298-.563-.541-1.403-.82-2.52-.838h-3.39v6.196zm21.603.533h-9.267v8.48h10.562V39h-11.248V20.516h11.248v.685h-10.562v7.947h9.267v.686zm13.898 4.735c0-.787-.184-1.453-.552-2-.368-.545-.948-1.027-1.74-1.446-.79-.42-1.986-.849-3.586-1.289-1.6-.44-2.8-.884-3.599-1.333-.8-.449-1.386-.97-1.758-1.562-.373-.592-.559-1.311-.559-2.158 0-1.345.567-2.435 1.701-3.269 1.134-.833 2.611-1.25 4.431-1.25 1.185 0 2.25.23 3.193.692.944.46 1.674 1.108 2.19 1.942.516.834.774 1.775.774 2.825h-.685c0-1.38-.508-2.52-1.524-3.422-1.015-.901-2.331-1.352-3.948-1.352-1.625 0-2.939.362-3.942 1.086-1.003.723-1.504 1.631-1.504 2.723 0 1.109.436 2.001 1.307 2.679.872.677 2.31 1.275 4.317 1.796 2.006.52 3.474 1.123 4.405 1.809 1.185.872 1.777 2.04 1.777 3.504 0 .93-.262 1.754-.787 2.47-.525.714-1.27 1.267-2.234 1.656-.965.39-2.048.584-3.25.584-1.337 0-2.54-.222-3.606-.667-1.066-.444-1.868-1.077-2.405-1.898-.538-.82-.807-1.79-.807-2.907h.686c0 1.515.567 2.692 1.701 3.53 1.134.837 2.611 1.256 4.43 1.256 1.617 0 2.95-.37 4-1.11 1.05-.741 1.574-1.704 1.574-2.889zm12.235-4.735h-9.268v8.48h10.563V39h-11.248V20.516h11.248v.685h-10.563v7.947h9.268v.686zm12.564 3.644h-9.051L194.258 39h-.749l6.919-18.484h.838L208.185 39h-.75l-2.069-5.522zm-8.797-.686h8.543l-4.265-11.451-4.278 11.451zm19.597-1.701h-6.41V39h-.686V20.516h5.89c1.854 0 3.329.478 4.425 1.434 1.096.957 1.644 2.256 1.644 3.898 0 1.26-.392 2.363-1.175 3.307a4.97 4.97 0 0 1-2.99 1.758l4.94 7.91V39h-.724l-4.914-7.91zm-6.41-.686h5.826c1.422 0 2.571-.431 3.447-1.295.876-.863 1.314-1.95 1.314-3.262 0-1.44-.484-2.573-1.453-3.403-.97-.83-2.296-1.244-3.98-1.244h-5.155v9.204zm26.935 2.933c-.178 1.904-.834 3.366-1.968 4.386s-2.674 1.53-4.62 1.53c-1.313 0-2.474-.332-3.486-.997-1.011-.664-1.796-1.608-2.355-2.83-.558-1.224-.842-2.622-.85-4.197v-2.856c0-1.574.275-2.981.825-4.221.55-1.24 1.335-2.199 2.355-2.876s2.19-1.015 3.51-1.015c1.93 0 3.466.508 4.609 1.523 1.142 1.016 1.802 2.472 1.98 4.367h-.685c-.195-1.7-.788-2.994-1.778-3.878-.99-.885-2.365-1.327-4.126-1.327-1.794 0-3.243.677-4.348 2.032-1.104 1.354-1.657 3.17-1.657 5.446v2.717c0 1.455.246 2.744.737 3.865.49 1.122 1.195 1.996 2.113 2.622.919.626 1.97.94 3.155.94 1.77 0 3.15-.437 4.145-1.308.995-.872 1.58-2.18 1.759-3.923h.685zM252.125 39h-.686v-9.166h-11.806V39h-.686V20.516h.686v8.632h11.806v-8.632h.686V39zm17.148-8.76c0 1.811-.314 3.4-.94 4.767-.626 1.367-1.521 2.417-2.685 3.149-1.164.732-2.503 1.098-4.018 1.098-1.498 0-2.833-.366-4.005-1.098-1.173-.732-2.078-1.775-2.717-3.13-.64-1.354-.963-2.915-.971-4.684V29.3c0-1.803.32-3.394.958-4.774.64-1.38 1.54-2.435 2.704-3.167 1.164-.732 2.5-1.098 4.006-1.098 1.506 0 2.841.362 4.005 1.085 1.164.724 2.063 1.765 2.698 3.123.635 1.359.956 2.94.965 4.742v1.028zm-3.212-.965c0-2.048-.388-3.618-1.162-4.71-.774-1.091-1.872-1.637-3.294-1.637-1.388 0-2.474.544-3.257 1.631-.783 1.088-1.182 2.626-1.2 4.615v1.066c0 2.031.396 3.601 1.188 4.71.79 1.109 1.89 1.663 3.294 1.663 1.422 0 2.516-.541 3.282-1.625.766-1.083 1.149-2.666 1.149-4.748v-.965zM284.427 39h-.685l-11.934-17.316V39h-.698V20.516h.698l11.934 17.278V20.516h.685V39zm3.754-.686h9.484V39h-10.182V20.516h.698v17.798zm11.892.686h-.685V20.516h.685V39zm16.881 0h-.685l-11.934-17.316V39h-.698V20.516h.698l11.934 17.278V20.516h.685V39zm13.01-9.166h-9.268v8.48h10.562V39H320.01V20.516h11.248v.685h-10.562v7.947h9.267v.686z" fill="#FFF" fill-rule="evenodd"/></svg>
